!!!OTL: Luniao ludupi
!!!ARE: Asia, China,ÿHunan, Yiyang
!! I, 558
!!!SCT: C1473
!!!YEM: Copyright 1995, estate of Helmut Schaffrath.
**kern
*ICvox
*Ivox
*M3/4
*k[f#c#]
*D:
{8ee
8b
8b
4.b
=1
8ee
8a
8b
4.dd}
=2
{8ee
8ee
16dd
16ee
8dd
16b
8.b
=3
8dd
8ee
16dd
16ee
4.dd}
=4
{8ee
8ee
16b
8dd
16dd
16b
8.b
=5
8dd
8b
12ee
12b
12dd
4dd}
=6
{8dd
8ee
8dd
4.b
=7
8ee
8b
8ee
4.b}
=8
{8dd
16dd
16ee
16a
16b
16dd
16ee
4dd
=9
8dd
8ee
8dd
4.b}
=10
{16a
8a
16b
8dd
4.b
=11
8dd
8dd
16b
16ee
16dd
16ee
16dd
8.ee}
=12
{16dd
16ee
16dd
16ee
4.dd
8a#
=13
2.b}
==
!!!AGN: Shange, Kuaiban shange
!! +++ 3.letzte Zeile eine 5Tole ver„ndert +++
!!!ONB: ESAC (Essen Associative Code) Database: HUANG
!!!AMT: simple triple
!!!AIN: vox
!!!EED: Helmut Schaffrath
!!!EEV: 1.0
*-
